svgs/thin/martini-glass-citrus.svg

<svg xmlns="http://www.w3.org/2000/svg" viewBox="0 0 576 512"><!--! Font Awesome Pro 6.3.0 by @fontawesome - https://fontawesome.com License - https://fontawesome.com/license (Commercial License) Copyright 2023 Fonticons, Inc. --><path d="M466.1 4.127c-69.12-16.88-137.1 19.57-165.6 81.01c-1.92 4.277 .0156 9.293 4.402 10.95c4.041 1.527 8.439-.4863 10.21-4.426c25.58-56.94 91.04-89.73 155-69.81c48.41 15.07 83.97 58.33 89.12 108.8c7.814 76.56-52.32 141.4-127.3 141.4c-21.95 0-43.48-5.742-62.75-16.67c-3.762-2.135-8.504-1.143-10.85 2.49c-2.445 3.783-1.359 8.961 2.551 11.2c21.78 12.45 46.17 18.99 71.05 18.99c78.71 0 142.9-63.47 143.1-141.9C576.9 79.61 530.7 19.9 466.1 4.127zM312 496H216v-117.1l198.1-237.8c1.1-2.391 2.422-5.703 1.109-8.516c-1.328-2.812-4.141-4.609-7.25-4.609H8.004c-3.109 0-5.922 1.797-7.25 4.609C-.5589 135.4-.137 138.7 1.863 141.1l198.1 237.8v117.1H104c-4.422 0-7.1 3.578-7.1 8s3.578 8 7.1 8h207.1c4.422 0 7.1-3.578 7.1-8S316.4 496 312 496zM25.08 144h365.8l-182.9 219.5L25.08 144z"/></svg>

<svg xmlns="http://www.w3.org/2000/svg" viewBox="0 0 576 512"><!-- Font Awesome Pro 6.0.0-alpha2 by @fontawesome - https://fontawesome.com License - https://fontawesome.com/license (Commercial License) --><path d="M466.119 4.127C397.001 -12.753 328.138 23.7 300.552 85.137C298.632 89.414 300.568 94.43 304.954 96.088C308.995 97.616 313.394 95.602 315.165 91.663C340.749 34.725 406.204 1.936 470.197 21.854C518.603 36.92 554.167 80.18 559.316 130.616C567.13 207.172 506.992 272 432 272C410.055 272 388.524 266.258 369.249 255.327C365.487 253.192 360.745 254.184 358.396 257.817L358.388 257.829C355.942 261.612 357.036 266.778 360.946 269.012C382.721 281.457 407.12 288 432 288C510.711 288 574.867 224.534 575.986 146.084C576.933 79.612 530.699 19.899 466.119 4.127ZM312.001 496H216.002V378.895L414.141 141.125C416.141 138.735 416.563 135.422 415.251 132.61C413.922 129.797 411.11 128 408.001 128H8.004C4.894 128 2.082 129.797 0.754 132.61C-0.559 135.422 -0.137 138.735 1.863 141.125L200.002 378.895V496H104.003C99.581 496 96.003 499.579 96.003 504S99.581 512 104.003 512H312.001C316.423 512 320.001 508.422 320.001 504S316.423 496 312.001 496ZM25.082 144H390.923L208.002 363.5L25.082 144Z"/></svg>
